X:1564
T:Doc' Boyd's Jig
O:england
R:Jig
C:John Burt
M:6/8
L:1/8
K:C
G|"C"cBc GEG|cea g2e|"G7"faf A2d|BdB GAB|
"C"cBc GEG|cea g2e|"G7"fdB GAB|"C"c3 c2:|
|:g|"F"a2a a2f|"C"g2g g2e|"G7"f2f fed|"C"g2e "C7"c2g|
"F"a2a a2f|"C"g2g g2e|"G7"fdB GAB|"C"c3 "C7"c2:|


